X:1
T:Title
%%score { ( 1 3 ) | ( 2 4 ) }
L:1/8
M:6/8
K:G
V:1 treble nm="Grand Piano"
V:3 treble 
V:2 bass 
V:4 bass 
V:1
 z3 z2[Q:1/4=81] D | BAG [FA]BA | d3 d2 B | G[B,=FG][CEG] [G,DG][CD^F][B,DG] | A3- A2 D | %5
 BAG [FA][FB][DFA] | [DGd]3 [DBd]2 [DGB] | [DFA][DFA][DA] [^CEA][CGB][G^c] | %8
[M:5/8] [Fd]-[Fd]- [Fd]3 |[M:1/8] D |[M:3/4] GG GA GA | B4 z2 | cc c^c B[EGc] | d6 | %14
 [DGB][CGA] [B,G][DFA] [DFB][DFA] | [Dd]3 [Ec]2 [Ge]/[Ge]/ | [Gd][GB] [GB][EGc] [DGB][CFA] | %17
[M:5/8] [B,G]-[B,G]- [B,G]3 |] %18
V:2
 z3 z2 [G,B,] | [G,D][G,CD][G,B,D] [D,D][K:treble][DF][CDF] | [B,DG]3 [G,B,G]2[K:bass] [F,B,^D] | %3
 [E,B,E]D,C, B,,A,,G,, | [D,F,D]3- [D,F,D]2 [F,A,] | [G,D][G,CD][G,B,D] [D,D][D,D]C, | %6
 B,,3 G,,2 G,, | A,,D,F, G,E,[E,A,] |[M:5/8] [D,A,]-[D,A,]- [D,A,]3 |[M:1/8] D, | %10
[M:3/4][K:treble] [G,B,D][G,B,D] [G,B,D][G,CD] [G,B,D][G,CD] | .D2 z [G,D]2 [G,DG] | %12
 [G,EG][G,EG] [G,EG][A,EG] [A,DG][K:bass]A,, | z C B, A,2 F, | G,G, G,D, D,C, | %15
 z[K:treble] F =F[K:bass] [C,G,]2 [^C,_B,]/[C,B,]/ | [D,B,][D,D] [D,D]D, D,D, | %17
[M:5/8] G,-G,- G,3 |] %18
V:3
 x6 | x6 | x6 | x6 | x6 | x6 | x6 | x6 |[M:5/8] x5 |[M:1/8] x |[M:3/4] x6 | z G E B2 B | x6 | %13
 [DF]A G F2 [DAc] | x6 | .G2 z2 z2 | x6 |[M:5/8] x5 |] %18
V:4
 x6 | x4[K:treble] x2 | x5[K:bass] x | x6 | x6 | x6 | x6 | x6 |[M:5/8] x5 |[M:1/8] x | %10
[M:3/4][K:treble] x6 | G,4 z2 | x5[K:bass] x | D,6 | x6 | B,,4[K:treble][K:bass] z2 | x6 | %17
[M:5/8] x5 |] %18

